build/img/profile.svg

<svg width="23" height="22" viewBox="0 0 23 22" fill="none" xmlns="http://www.w3.org/2000/svg">
<path fill-rule="evenodd" clip-rule="evenodd" d="M11.187 14C8.94788 14 7.18701 12.4274 7.18701 9C7.18701 6.75576 8.76611 5 11.187 5C13.6012 5 15.187 6.92158 15.187 9.2C15.187 12.4796 13.4051 14 11.187 14ZM9.18701 9C9.18701 11.2693 10.0052 12 11.187 12C12.3647 12 13.187 11.2984 13.187 9.2C13.187 7.95042 12.4027 7 11.187 7C9.92075 7 9.18701 7.81582 9.18701 9Z" fill="#9564AA"/>
<path fill-rule="evenodd" clip-rule="evenodd" d="M11.187 22C5.11188 22 0.187012 17.0751 0.187012 11C0.187012 4.92487 5.11188 0 11.187 0C17.2621 0 22.187 4.92487 22.187 11C22.187 17.0751 17.2621 22 11.187 22ZM18.5865 16.1246C19.5956 14.6703 20.187 12.9042 20.187 11C20.187 6.02944 16.1576 2 11.187 2C6.21645 2 2.18701 6.02944 2.18701 11C2.18701 12.9042 2.77839 14.6703 3.78752 16.1246C4.91296 14.6381 7.55761 14 11.187 14C14.8164 14 17.4611 14.6381 18.5865 16.1246ZM17.1517 17.7398C16.859 16.6874 14.7564 16 11.187 16C7.61763 16 5.51502 16.6874 5.22233 17.7398C6.81031 19.1462 8.89895 20 11.187 20C13.4751 20 15.5637 19.1462 17.1517 17.7398Z" fill="#9564AA"/>
</svg>

<svg width="23" height="22" fill="none" xmlns="http://www.w3.org/2000/svg"><path fill-rule="evenodd" clip-rule="evenodd" d="M11.187 14c-2.24 0-4-1.573-4-5 0-2.244 1.58-4 4-4 2.414 0 4 1.922 4 4.2 0 3.28-1.782 4.8-4 4.8Zm-2-5c0 2.27.818 3 2 3 1.178 0 2-.702 2-2.8 0-1.25-.784-2.2-2-2.2-1.266 0-2 .816-2 2Z" fill="#9564AA"/><path fill-rule="evenodd" clip-rule="evenodd" d="M11.187 22c-6.075 0-11-4.925-11-11s4.925-11 11-11 11 4.925 11 11-4.925 11-11 11Zm7.4-5.875a9 9 0 1 0-14.799 0C4.913 14.638 7.558 14 11.187 14c3.63 0 6.274.638 7.4 2.125Zm-1.435 1.615c-.293-1.053-2.396-1.74-5.965-1.74-3.57 0-5.672.687-5.965 1.74A8.966 8.966 0 0 0 11.187 20a8.966 8.966 0 0 0 5.965-2.26Z" fill="#9564AA"/></svg>
